X:1
T:Die Kapelle
T:Conradin Kreutzer
T:Ludwig Uhland
T:Die Kapelle
T:CPDL - Creative Commons Attribution Non Commercial 3.0
T:CPDL - Creative Commons Attribution Non Commercial 3.0
T:CPDL - Creative Commons Attribution Non Commercial 3.0
C:Conradin Kreutzer
Z:Ludwig Uhland
Z:CPDL - Creative Commons Attribution Non Commercial 3.0
%%score [ ( 1 2 ) ( 3 4 ) ]
L:1/8
Q:1/4=72
M:3/4
K:A
V:1 treble-8 nm="Tenor"
V:2 treble-8 
V:3 bass nm="Bass"
V:4 bass 
V:1
!mf! cc!<(! cc cc!<)! |!>(! c>B A2!>)!!p! AA | B3"^dim." B B>d | c2- c z"^dol." ee | e3 c fd | %5
w: Dro- ben ste- het die Ka-|pel- * le, schau- et|still ins Tal hin-|ab, _ drun- ten|singt bei Wies' und|
 e2 c2!<(! c/e/ e/a/!<)! |!>(! a3!>)! e/c/ B{/f}e | (B2 c) z!p! ^d/e/ f/e/ | e3 c f/a/ f/d/ | %9
w: Quel- le froh * und *|hell der * Hir- ten-|knab, _ drun- * ten *|singt bei Wies' * und *|
 e2 c2!<(! c/e/ e/a/!<)! |!>(! a3!>)! e/c/ B{/f}e | c4 z2 |!pp! .c.c .c.c .c.c | c>A c2 z2 | %14
w: Quel- le froh * und *|hell der * Hir- ten-|knab.|Trau- rig tönt das Glöck- lein|nie- * der,|
!<(! f>f ff f!<)!f |!>(! ^e4!>)! z2 |!pp! =e>e ee fe | ed d2 dd |{/d} c2 c2!pp! c>^E | F4 z2 | %20
w: schau- er- lich der Lei- chen-|chor;|stil- le sind die fro- hen|Lie- * der, und der|Kna- be lauscht em-|por.|
!f! cc!<(! cc cc!<)! |!>(! c>B A2!>)!"^dim." AA | B3 B B!p!B | c4 ee | ec c2 ee | %25
w: Dro- ben bringt man sie zu|Gra- * be, die sich|freu- ten in dem|Tal. Hir- ten-|kna- * be! Hir- ten-|
!<(! e^e e2 ee!<)! |!f! f3 A!>(! d>c | c2!>)! z2!pp! .c.c | .c2 .c2 | !>!c>c | c2 z2 .c.c | %31
w: kna- * be! dir auch|singt man dort ein-|mal! dir auch|singt man|dort ein-|mal! dir auch|
 .c2 .c2 !>!c>c | c2 z2!f! f>f | f2 F2!ff! f>f | f2 d2 dd | d2 c2!>(! !>!c>c | c2!>)! z2!p! c>c | %37
w: singt man dort ein-|mal! Hir- ten-|kna- be! Hir- ten-|kna- be! dir auch|singt man dort ein-|mal, dort ein-|
 c2 z2!pp! c>c |"^perdendosi" !fermata!A6 |] %39
w: mal, dort ein-|mal!|
V:2
 AA BB AA | G2 A2 AA | A3 A G>G | A2- A x cc | c3 A dB | c2 A2 A/c/ c/e/ | e3 c/A/ GG | %7
 (G2 A) x ^B/c/ ^d/c/ | c3 A d/f/ d/B/ | c2 A2 A/c/ c/e/ | e3 c/A/ GG | A4 x2 | BB BB BB | %13
 A>F A2 x2 | B>B BB B^B | c4 x2 | c>c cc cc | cd B2 GG | A2 A2 G>B | A4 x2 | AA BB AA | G2 A2 AA | %22
 A3 A GG | A4 cc | cA A2 cc | c2 c2 cc | c3 A G>G | A2 x2 AA | G2 G2 | G>G | A2 x2 AA | G2 G2 G>G | %32
 A2 x2 c>c | c2 A2 d>d | d2 A2 GG | A2 A2 G>G | A2 x2 G>G | A2 x2 G>G | F6 |] %39
V:3
!mf! A,A,!<(! G,G, A,F,!<)! |!>(! ^E,2 F,2!>)!!p! F,F, | F,3"^dim." F, E,>E, | E,2- E, z z2 | %4
"^dol." z6 | z2 z2!<(! E,/A,/ A,/C/!<)! |!f!!>(! C3!>)! A, E,E, | E,2- E, z z2 |!p! z6 | %9
 z4!<(! E,/A,/ A,/C/!<)! |!f!!>(! C3!>)! A, E,E, | E,4 z2 |!pp! G,G, G,G, G,G, | A,>C A,2 z2 | %14
!<(! F,>F, F,F, G,!<)!G, |!>(! G,4!>)! z2 |!pp! F,>F, F,F, F,F, | F,2 F,2 F,F, | %18
 F,2 F,2!pp! ^E,>G, | C,4 z2 |!f! A,A,!<(! G,G, A,F,!<)! |!>(! ^E,2 F,2!>)!"^dim." F,F, | %22
 F,3 F, E,!p!E, | E,4 z2 | z4 CC |!<(! CB, B,2 B,B,!<)! |!f! A,3 F,!>(! F,>^E, | %27
 F,2!>)! z2!pp! F,F, | ^E,2 E,2 | ^E,>E, | F,2 z2 F,F, | ^E,2 E,2 E,>E, | F,2 z2!f! A,>A, | %33
 A,2 C2!ff! A,>A, | A,2 F,2 F,F, | F,2 F,2!>(! !>!F,>^E, | F,2!>)!!p! z2!p! ^E,>E, | %37
 F,2!pp! z2!pp! ^E,>E, | !fermata!C,6 |] %39
V:4
 F,F, ^E,E, F,F, | C,2 D,2 D,D, | (D,2 ^D,)D, E,>E, | A,,2- A,, x x2 | A,A, A,2 z A, | %5
w: ||||drun- ten singt bei|
 A,A, A,A,, z2 | A,,/C,/ C,/E,/ E,E, E,E, | (E,2 A,,) x x2 | G,/A,/ B,/A,/ A,2 z A, | %9
w: Wies' und Quel- le|froh * und * hell der Hir- ten-|knab, _|drun- * ten * singt bei|
 G,/A,/ B,/A,/ A,A,, z2 | A,,/C,/ C,/E,/ E,E, E,E, | A,,4 x2 | .^E,.E, .E,.E, .E,.E, | %13
w: Wies' * und * Quel- le|froh * und * hell der Hir- ten-|knab.||
 F,2 F,,2 x2 | D,>D, D,D, D,D, | C,4 x2 | ^A,,>A,, A,,A,, A,,A,, | ^A,,B,, B,,2 B,,B,, | %18
w: |||||
 C,2 C,2 C,>C, | F,,4 x2 | F,F, ^E,E, F,F, | C,2 D,2 D,D, | (D,2 ^D,)D, E,E, | A,,4 A,A, | %24
w: ||||||
 A,2 A,,2 A,A, | A,G, G,2 G,G, | F,3 D, B,,>C, | F,,2 x2 .F,.F, | .C,2 .C,2 | !>!C,>C, | %30
w: ||||||
 F,2 x2 .F,.F, | .C,2 .C,2 !>!C,>C, | F,2 x2 F,>F, | F,2 F,2 D,>D, | D,2 D,2 B,,B,, | %35
w: |||||
 C,2 C,2 C,>C, | F,,2 !>!C,2- C,>C, | F,,2 !>!C,2- C,>C, | F,,6 |] %39
w: |* dort _ _|_ dort _ _|_|

